Origami/24x24/apps/bandcamp.svg

<svg width="24" height="24" version="1" xmlns="http://www.w3.org/2000/svg">
 <path d="m5 5.5c-1.6567856 1.657e-4 -2.9998343 1.3432144-3 3v8c1.657e-4 1.656786 1.3432144 2.999834 3 3h2c0.2068189-8.72e-4 0.4129934-0.02313 0.6152345-0.06641 0.128584 0.0086 0.249752 0.06613 0.378906 0.06641h0.0058595c1.4821855 0 2.808717-0.610755 3.863281-1.523438 1.175895 0.894044 2.564926 1.523438 4.136719 1.523438h0.0039c2.492879-0.0032 4.306296-1.341101 5.552735-3.5 0.64609-1.122613 0.498821-2.533107-0.365229-3.498047 0.866526-0.965218 1.014658-2.377989 0.367188-3.501953-1.247045-2.159946-3.062551-3.498027-5.556641-3.5h-0.001953c-2.185582 0-4.072083 1.0955995-5.361328 2.6933595-0.229818-0.1165095-0.456225-0.2084405-0.701172-0.294922-0.2857247-1.3953939-1.5131538-2.3975767-2.9375-2.3984375z" style="opacity:.2"/>
 <path d="M 5,5 C 3.3432144,5.0001657 2.0001657,6.3432144 2,8 v 5 3 c 1.657e-4,1.656786 1.3432144,2.999834 3,3 h 2 c 0.2068189,-8.72e-4 0.4129934,-0.02313 0.6152345,-0.06641 0.128584,0.0086 0.249752,0.06613 0.378906,0.06641 H 8 c 1.4821855,0 2.808717,-0.610755 3.863281,-1.523438 C 13.039176,18.370606 14.428207,19 16,19 h 0.0039 c 2.492879,-0.0032 4.306296,-1.341101 5.552735,-3.5 0.64609,-1.122613 0.498821,-2.533107 -0.365229,-3.498047 C 22.057932,11.036735 22.206064,9.6239636 21.558594,8.5 20.311549,6.340054 18.496043,5.001973 16.001953,5 H 16 C 13.814418,5 11.927917,6.0955995 10.638672,7.6933595 10.408854,7.57685 10.182447,7.484919 9.9375,7.3984375 9.6517753,6.0030436 8.4243462,5.0008608 7,5 Z" style="fill:#4f4f4f"/>
 <path d="m5 8.5v8h2v-0.174805a3 3 0 0 0 1 0.174805 3 3 0 0 0 3 -3 3 3 0 0 0 -3 -3 3 3 0 0 0 -1 0.175781v-2.175781zm11 0a4 4 0 0 0 -4 4 4 4 0 0 0 4 4 4 4 0 0 0 3.458008 -2h-3.458008a2 2 0 0 1 -2 -2 2 2 0 0 1 2 -2h3.459961a4 4 0 0 0 -3.459961 -2zm-8 4a1 1 0 0 1 1 1 1 1 0 0 1 -1 1 1 1 0 0 1 -1 -1 1 1 0 0 1 1 -1z" style="opacity:.2"/>
 <g transform="matrix(.5 0 0 .5 -6 0)" style="fill:#74bed2">
  <path transform="matrix(2,0,0,2,12,0)" d="m5 8v5 3h2v-0.173828a3 3 0 0 0 1 0.173828 3 3 0 0 0 3 -3 3 3 0 0 0 -3 -3 3 3 0 0 0 -1 0.175781v-2.175781h-2zm11 0a4 4 0 0 0 -4 4 4 4 0 0 0 4 4 4 4 0 0 0 3.458984 -2h-3.458984a2 2 0 0 1 -2 -2 2 2 0 0 1 2 -2h3.460938a4 4 0 0 0 -3.460938 -2zm-8 4a1 1 0 0 1 1 1 1 1 0 0 1 -1 1 1 1 0 0 1 -1 -1 1 1 0 0 1 1 -1z" style="fill:#74bed2"/>
  <path transform="matrix(2,0,0,2,12,0)" d="m5 8v5 3h2v-0.173828a3 3 0 0 0 1 0.173828 3 3 0 0 0 3 -3 3 3 0 0 0 -3 -3 3 3 0 0 0 -1 0.175781v-2.175781h-2zm11 0a4 4 0 0 0 -4 4 4 4 0 0 0 4 4 4 4 0 0 0 3.458984 -2h-3.458984a2 2 0 0 1 -2 -2 2 2 0 0 1 2 -2h3.460938a4 4 0 0 0 -3.460938 -2zm-8 4a1 1 0 0 1 1 1 1 1 0 0 1 -1 1 1 1 0 0 1 -1 -1 1 1 0 0 1 1 -1z" style="fill:none"/>
 </g>
 <path d="m5 5c-1.6567856 1.657e-4 -2.9998343 1.3432144-3 3v0.5c1.657e-4 -1.6567856 1.3432144-2.9998343 3-3h2c1.4243462 8.608e-4 2.6517753 1.0030436 2.9375 2.3984375 0.244947 0.0864815 0.471354 0.1784124 0.701172 0.2949219 1.289245-1.59776 3.175746-2.6933594 5.361328-2.6933594h0.001953c2.49409 0.001973 4.309596 1.340054 5.556641 3.5 0.228136 0.3960285 0.352754 0.828144 0.386718 1.263672 0.053435-0.5997034-0.071182-1.2159235-0.386718-1.763672-1.247045-2.159946-3.062551-3.498027-5.556641-3.5h-0.001953c-2.185582 0-4.072083 1.0955994-5.361328 2.6933594-0.229818-0.1165095-0.456225-0.2084404-0.701172-0.2949219-0.2857247-1.3953939-1.5131538-2.3975767-2.9375-2.3984375h-2zm16.382812 7.251953c-0.061421 0.084883-0.120254 0.170745-0.191406 0.25 0.445243 0.497231 0.695891 1.1126 0.75 1.746094 0.057262-0.701436-0.134739-1.40894-0.558594-1.996094z" style="fill:#ffffff;opacity:.1"/>
</svg>

<svg xmlns="http://www.w3.org/2000/svg" width="24" height="24" version="1">
 <path style="opacity:0.2" d="m 5,5.5 c -1.6567856,1.657e-4 -2.9998343,1.3432144 -3,3 v 5 3 c 1.657e-4,1.656786 1.3432144,2.999834 3,3 h 2 c 0.2068189,-8.72e-4 0.4129934,-0.02313 0.6152345,-0.06641 0.128584,0.0086 0.249752,0.06613 0.378906,0.06641 H 8 c 1.4821855,0 2.808717,-0.610755 3.863281,-1.523438 C 13.039176,18.870606 14.428207,19.5 16,19.5 h 0.0039 c 2.492879,-0.0032 4.306296,-1.341101 5.552735,-3.5 0.64609,-1.122613 0.498821,-2.533107 -0.365229,-3.498047 C 22.057932,11.536735 22.206064,10.123964 21.558594,9 20.311549,6.840054 18.496043,5.501973 16.001953,5.5 H 16 C 13.814418,5.5 11.927917,6.5955995 10.638672,8.1933595 10.408854,8.07685 10.182447,7.984919 9.9375,7.8984375 9.6517753,6.5030436 8.4243462,5.5008608 7,5.5 Z"/>
 <path style="fill:#4f4f4f" d="M 5,5 C 3.3432144,5.0001657 2.0001657,6.3432144 2,8 v 5 3 c 1.657e-4,1.656786 1.3432144,2.999834 3,3 h 2 c 0.2068189,-8.72e-4 0.4129934,-0.02313 0.6152345,-0.06641 0.128584,0.0086 0.249752,0.06613 0.378906,0.06641 H 8 c 1.4821855,0 2.808717,-0.610755 3.863281,-1.523438 C 13.039176,18.370606 14.428207,19 16,19 h 0.0039 c 2.492879,-0.0032 4.306296,-1.341101 5.552735,-3.5 0.64609,-1.122613 0.498821,-2.533107 -0.365229,-3.498047 C 22.057932,11.036735 22.206064,9.6239636 21.558594,8.5 20.311549,6.340054 18.496043,5.001973 16.001953,5 H 16 C 13.814418,5 11.927917,6.0955995 10.638672,7.6933595 10.408854,7.57685 10.182447,7.484919 9.9375,7.3984375 9.6517753,6.0030436 8.4243462,5.0008608 7,5 Z"/>
 <path style="opacity:0.2" d="m 5,8.5 v 5 3 H 7 V 16.325195 A 3,3 0 0 0 8,16.5 a 3,3 0 0 0 3,-3 3,3 0 0 0 -3,-3 3,3 0 0 0 -1,0.175781 V 8.5 Z m 11,0 a 4,4 0 0 0 -4,4 4,4 0 0 0 4,4 4,4 0 0 0 3.458008,-2 H 16 a 2,2 0 0 1 -2,-2 2,2 0 0 1 2,-2 h 3.459961 A 4,4 0 0 0 16,8.5 Z m -8,4 a 1,1 0 0 1 1,1 1,1 0 0 1 -1,1 1,1 0 0 1 -1,-1 1,1 0 0 1 1,-1 z"/>
 <g style="fill:#74bed2" transform="matrix(0.5,0,0,0.5,-6,0)">
  <path style="fill:#74bed2" d="M 5 8 L 5 13 L 5 16 L 7 16 L 7 15.826172 A 3 3 0 0 0 8 16 A 3 3 0 0 0 11 13 A 3 3 0 0 0 8 10 A 3 3 0 0 0 7 10.175781 L 7 8 L 5 8 z M 16 8 A 4 4 0 0 0 12 12 A 4 4 0 0 0 16 16 A 4 4 0 0 0 19.458984 14 L 16 14 A 2 2 0 0 1 14 12 A 2 2 0 0 1 16 10 L 19.460938 10 A 4 4 0 0 0 16 8 z M 8 12 A 1 1 0 0 1 9 13 A 1 1 0 0 1 8 14 A 1 1 0 0 1 7 13 A 1 1 0 0 1 8 12 z" transform="matrix(2,0,0,2,12,0)"/>
  <path style="fill:none" d="M 5 8 L 5 13 L 5 16 L 7 16 L 7 15.826172 A 3 3 0 0 0 8 16 A 3 3 0 0 0 11 13 A 3 3 0 0 0 8 10 A 3 3 0 0 0 7 10.175781 L 7 8 L 5 8 z M 16 8 A 4 4 0 0 0 12 12 A 4 4 0 0 0 16 16 A 4 4 0 0 0 19.458984 14 L 16 14 A 2 2 0 0 1 14 12 A 2 2 0 0 1 16 10 L 19.460938 10 A 4 4 0 0 0 16 8 z M 8 12 A 1 1 0 0 1 9 13 A 1 1 0 0 1 8 14 A 1 1 0 0 1 7 13 A 1 1 0 0 1 8 12 z" transform="matrix(2,0,0,2,12,0)"/>
 </g>
 <path style="opacity:0.1;fill:#ffffff" d="M 5 5 C 3.3432144 5.0001657 2.0001657 6.3432144 2 8 L 2 8.5 C 2.0001657 6.8432144 3.3432144 5.5001657 5 5.5 L 7 5.5 C 8.4243462 5.5008608 9.6517753 6.5030436 9.9375 7.8984375 C 10.182447 7.984919 10.408854 8.0768499 10.638672 8.1933594 C 11.927917 6.5955994 13.814418 5.5 16 5.5 L 16.001953 5.5 C 18.496043 5.501973 20.311549 6.840054 21.558594 9 C 21.78673 9.3960285 21.911348 9.828144 21.945312 10.263672 C 21.998747 9.6639686 21.87413 9.0477485 21.558594 8.5 C 20.311549 6.340054 18.496043 5.001973 16.001953 5 L 16 5 C 13.814418 5 11.927917 6.0955994 10.638672 7.6933594 C 10.408854 7.5768499 10.182447 7.484919 9.9375 7.3984375 C 9.6517753 6.0030436 8.4243462 5.0008608 7 5 L 5 5 z M 21.382812 12.251953 C 21.321391 12.336836 21.262558 12.422698 21.191406 12.501953 C 21.636649 12.999184 21.887297 13.614553 21.941406 14.248047 C 21.998668 13.546611 21.806667 12.839107 21.382812 12.251953 z"/>
</svg>
